src/img/signo.svg

<svg width="309" height="118" viewBox="0 0 309 118" fill="none" xmlns="http://www.w3.org/2000/svg">
<path fill-rule="evenodd" clip-rule="evenodd" d="M36.2171 0C55.6373 0 69.4577 4.05953 69.4577 15.5304C69.4577 19.354 67.9066 24.0104 64.5691 29.6247C64.6651 29.0739 64.7054 28.5147 64.6894 27.9558C64.6894 17.3232 47.5369 15.1716 36.3364 15.1716C27.5216 15.1716 21.2054 16.723 21.2054 24.0126C21.2054 41.4597 72.315 22.6982 72.315 62.1303C72.315 80.4059 56.5879 89.6122 34.3104 89.6122C18.7015 89.6122 2.14298 84.7122 2.14298 73.5969C2.14298 70.1342 3.69412 66.0736 7.50531 61.291C7.50531 72.1705 24.3012 74.4394 34.3104 74.4394C45.8676 74.4394 51.1053 70.6114 51.1053 63.5676C51.1053 43.8493 0 62.6087 0 26.2848C0 6.09364 16.3211 0.00108824 36.216 0.00108824" fill="black"/>
<path fill-rule="evenodd" clip-rule="evenodd" d="M81.7303 1.66772H94.599C98.1761 1.66772 100.789 4.41286 100.789 6.20671V17.6776H88.0454C84.3502 17.6776 81.7303 15.4076 81.7303 13.2604V1.66772ZM81.3748 24.4931C83.044 24.4931 101.39 24.8519 101.39 33.6907V89.1371C101.39 89.1371 81.3748 89.137 81.3748 79.9308V24.4931Z" fill="black"/>
<path fill-rule="evenodd" clip-rule="evenodd" d="M148.575 39.0635C146.19 38.2286 143.091 37.7589 140.471 37.7589C134.279 37.7589 131.06 39.9127 131.06 46.5999V47.6719C131.06 54.2482 132.491 57.9545 139.76 57.9545C146.67 57.9545 148.575 54.2493 148.575 47.6762V39.0635ZM168.233 49.4624C168.233 63.5665 158.222 71.928 139.76 71.928C131.897 71.928 124.987 68.9404 124.987 68.9404C124.987 68.9404 124.508 70.8517 124.508 72.2879C124.508 76.7072 130.707 77.6629 137.732 77.6629H141.663C155.247 77.6629 170.017 76.7116 170.017 95.7101C170.017 108.736 160.485 117.216 139.64 117.216C121.291 117.216 111.999 111.367 111.999 103.838C111.999 100.25 113.551 96.6701 116.768 92.604C118.674 102.878 130.587 103.237 137.735 103.237C146.788 103.237 150.605 101.325 150.605 96.7853C150.605 92.603 146.788 92.1224 141.309 92.1224H135.464C121.287 92.1224 109.85 90.0915 109.85 78.3837C109.85 73.4837 112.593 69.6623 116.881 64.5221C113.187 61.2997 111.045 53.4089 111.045 49.4657V44.8039C111.045 29.5116 124.03 23.8952 136.893 23.8952C143.444 23.8952 150.597 26.524 156.55 26.524C159.529 26.524 163.107 25.689 168.229 23.7778L168.233 49.4624Z" fill="black"/>
<path fill-rule="evenodd" clip-rule="evenodd" d="M214.834 46.8337C214.834 41.2162 212.57 38.234 205.776 38.234C201.608 38.2286 196.608 39.3049 196.608 39.3049V89.137C196.608 89.137 176.592 89.137 176.592 79.9351V23.5342C176.592 23.5342 181.833 26.4055 189.696 26.4055C195.533 26.4055 201.129 23.8919 207.45 23.8919C220.782 23.8919 234.849 28.4331 234.849 45.0431V89.137C234.849 89.137 214.834 88.8957 214.834 79.9351V46.8337Z" fill="black"/>
<path d="M284.845 24.2604H263.994C253.099 24.2604 240.114 29.929 240.114 56.9368C240.114 83.7424 253.099 89.3719 263.994 89.3719H284.846C300.245 89.3719 308.726 77.8531 308.726 56.9368C308.725 35.865 300.244 24.2604 284.845 24.2604ZM283.896 65.4777C283.896 71.43 282.495 74.2622 274.535 74.2622C266.377 74.2622 264.942 71.4289 264.942 65.4734V48.1502C264.942 42.2794 266.377 39.4853 274.535 39.4853C282.494 39.4853 283.896 42.2783 283.896 48.148V65.4777Z" fill="black"/>
</svg>

<svg width="309" height="118" fill="none" xmlns="http://www.w3.org/2000/svg"><path fill-rule="evenodd" clip-rule="evenodd" d="M36.217 0c19.42 0 33.24 4.06 33.24 15.53 0 3.824-1.55 8.48-4.888 14.095.096-.551.136-1.11.12-1.67 0-10.632-17.152-12.783-28.353-12.783-8.814 0-15.13 1.551-15.13 8.84 0 17.448 51.109-1.314 51.109 38.118 0 18.276-15.727 27.482-38.005 27.482-15.609 0-32.167-4.9-32.167-16.015 0-3.463 1.551-7.523 5.362-12.306 0 10.88 16.796 13.148 26.805 13.148 11.558 0 16.795-3.828 16.795-10.871C51.105 43.849 0 62.608 0 26.285 0 6.094 16.321 0 36.216 0M81.73 1.668H94.6c3.577 0 6.19 2.745 6.19 4.539v11.47H88.045c-3.695 0-6.315-2.27-6.315-4.417V1.668zm-.355 22.825c1.669 0 20.015.359 20.015 9.198v55.446s-20.015 0-20.015-9.206V24.493zM148.575 39.063c-2.385-.834-5.484-1.304-8.104-1.304-6.192 0-9.411 2.154-9.411 8.84v1.073c0 6.576 1.431 10.283 8.7 10.283 6.91 0 8.815-3.706 8.815-10.279v-8.613zm19.658 10.4c0 14.103-10.011 22.465-28.473 22.465-7.863 0-14.773-2.988-14.773-2.988s-.479 1.912-.479 3.348c0 4.42 6.199 5.375 13.224 5.375h3.931c13.584 0 28.354-.951 28.354 18.047 0 13.026-9.532 21.506-30.377 21.506-18.349 0-27.641-5.849-27.641-13.378 0-3.588 1.552-7.168 4.769-11.234 1.906 10.274 13.819 10.633 20.967 10.633 9.053 0 12.87-1.912 12.87-6.452 0-4.182-3.817-4.663-9.296-4.663h-5.845c-14.177 0-25.614-2.03-25.614-13.738 0-4.9 2.743-8.722 7.031-13.862-3.694-3.222-5.836-11.113-5.836-15.056v-4.662c0-15.292 12.985-20.909 25.848-20.909 6.551 0 13.704 2.629 19.657 2.629 2.979 0 6.557-.835 11.679-2.746l.004 25.684zM214.834 46.834c0-5.618-2.264-8.6-9.058-8.6-4.168-.005-9.168 1.07-9.168 1.07v49.833s-20.016 0-20.016-9.202v-56.4s5.241 2.87 13.104 2.87c5.837 0 11.433-2.513 17.754-2.513 13.332 0 27.399 4.541 27.399 21.151v44.094s-20.015-.241-20.015-9.202V46.834z" fill="#000"/><path d="M284.845 24.26h-20.851c-10.895 0-23.88 5.669-23.88 32.677 0 26.805 12.985 32.435 23.88 32.435h20.852c15.399 0 23.88-11.519 23.88-32.435-.001-21.072-8.482-32.677-23.881-32.677zm-.949 41.218c0 5.952-1.401 8.784-9.361 8.784-8.158 0-9.593-2.833-9.593-8.789V48.15c0-5.87 1.435-8.665 9.593-8.665 7.959 0 9.361 2.793 9.361 8.663v17.33z" fill="#000"/></svg>
